!!!!SEGMENT: pl-kk--kk-i-134--002_mel-rinaldo-del--gaudent-in-caelis.krn
!!!cenid: 16xx:742
!!!COM: Mel, Rinaldo del
!!!COM-rismid: pe327026
!!!CDT: ~1554-~1598
!!!CNT: French-Flemish
!!!OTL: Gaudent in caelis
!!!PDT:
!!!AGN: Sacred
!!!SMS-siglum: PL-Kk
!!!SMS-shelfmark: Kk.I.134
!!!SMS-shelfwork: 002 W
!!!SMS-variant:
!!!SMS-altvar:
!!!NIFC-rismid: 1001143940
!!!URL-scan: http://repozytorium.nifc.pl/skany/pl-kk-nut--i-134
!!!ONB-nifc: UWAGA: utwory w zbiorze: 1. Benedicte dominum, 2. Gaudent in caelis, 3. Domine non est exaltatum – Domine… (1), 3. Domine non est exaltatum – Sicut ablactus est (2), 4. Hodie Christus
**kern	**text
*I"Baſso.	*
*I'B	*
*clefF4	*
*k[b-]	*
*M2/2	*
*met(c|)	*
=1-	=1-
!LO:TX:t=P:problem:all2\right	!
!LO:TX:t=P:problem:kreski taktowe	!
00r	.
=2-	=2-
.	.
=3-	=3-
.	.
=4-	=4-
.	.
=5-	=5-
00r	.
=6-	=6-
.	.
=7-	=7-
.	.
=8-	=8-
.	.
=9-	=9-
1r	.
=10-	=10-
1FF/	Gau-
=11-	=11-
2FF/	-dent
2FF/	in
=12-	=12-
2.BB-/	Cae-
4C/	.
=13-	=13-
4D/	.
4E/	.
1F\	.
=14-	=14-
.	.
*2\right	*
2E\	.
=15-	=15-
!LO:TX:t=P:problem:kreska pseudotaktowa	!
1F\	-lis
=16-	=16-
0r	.
=17-	=17-
.	.
=18-	=18-
*	*ij
0F\	Gau-
=19-	=19-
.	.
=20-	=20-
1F\	-dent
=21-	=21-
1G\	in
=22-	=22-
1A\	cae-
=23-	=23-
2.F\	.
4E\	.
=24-	=24-
1D\	.
=25-	=25-
0.C/	-lis
*	*Xij
=26-	=26-
.	.
=27-	=27-
!LO:TX:t=P:problem:kreska pseudotaktowa	!
.	.
=28-	=28-
00r	.
=29-	=29-
.	.
=30-	=30-
.	.
=31-	=31-
!LO:TX:t=P:problem:kreska pseudotaktowa	!
.	.
=32-	=32-
1FF/	gau-
=33-	=33-
2FF/	-dent
2FF/	in
=34-	=34-
2.BB-/	Cae-
4C/	.
=35-	=35-
4D/	.
!LO:SIC:v:t=custos F	!
4E/	.
!!LO:PB:g=original
1F\	.
=36-	=36-
.	.
2E\	.
=37-	=37-
2.F\	.
4E\	.
=38-	=38-
1D\	.
=39-	=39-
!LO:TX:t=P:problem:kreska pseudotaktowa	!
1C/	-lis
=40-	=40-
1r	.
=41-	=41-
2r	.
2.C/	a-
=42-	=42-
.	.
4C/	-ni-
2BB-/	-mae
=43-	=43-
2FF/	san-
2C/	-cto-
=44-	=44-
!LO:TX:t=P:problem:kreska pseudotaktowa	!
1FF/	-rum
=45-	=45-
1r	.
=46-	=46-
2r	.
*	*ij
2.F\	a-
=47-	=47-
.	.
4F\	-ni-
2E\	-mae
=48-	=48-
2F\	san-
2D\	-cto-
=49-	=49-
1C/	-rum
*	*Xij
=50-	=50-
0r	.
=51-	=51-
.	.
=52-	=52-
1r	.
=53-	=53-
2r	.
2F\	qui
=54-	=54-
1F\	Chri-
=55-	=55-
2E\	-sti
2F\	ve-
=56-	=56-
2.D\	-sti-
4E\	-gi-
=57-	=57-
2F\	-a
!!LO:LB:g=original
2.FF/	sunt
=58-	=58-
.	.
4GG/	.
4AA/	.
4BB-/	.
=59-	=59-
2C/	.
2FF/	se-
=60-	=60-
1BB-/	-cu-
=61-	=61-
!LO:TX:t=P:problem:kreska pseudotaktowa	!
1FF/	-ti
=62-	=62-
0r	.
=63-	=63-
.	.
=64-	=64-
1r	.
=65-	=65-
2r	.
2F\	et
=66-	=66-
1F\	qui-
=67-	=67-
2C/	-a
2C/	pro
=68-	=68-
1D\	E-
=69-	=69-
2BB-/	-jus
2BB-/	a-
=70-	=70-
1F\	-mo-
=71-	=71-
2.C/	.
4D/	.
=72-	=72-
4E/	.
4F/	.
2.G\	.
=73-	=73-
.	.
8F\L	.
8E\J	.
2.D/	.
=74-	=74-
.	.
4E/	.
2F\	.
=75-	=75-
1F\	-re
=76-	=76-
2r	.
1F\	san-
=77-	=77-
.	.
2E\	-gui-
=78-	=78-
1D\	-nem
=79-	=79-
1F\	su-
!!LO:LB:g=original
=80-	=80-
2FF/	-um
2AA/	fu-
=81-	=81-
1GG/	-de-
=82-	=82-
!LO:TX:t=P:problem:kreska pseudotaktowa	!
1FF/	-runt
=83-	=83-
0r	.
=84-	=84-
.	.
=85-	=85-
2r	.
*	*ij
1C/	san-
=86-	=86-
.	.
2BB-/	-gui-
=87-	=87-
2AA/	-nem
2C/	su-
=88-	=88-
1FF/	-um
=89-	=89-
1C/	fu-
=90-	=90-
1GG/	-de-
=91-	=91-
2D/	-runt
1F\	san-
=92-	=92-
.	.
2E\	-gui-
=93-	=93-
2D\	nem
2D\	su-
=94-	=94-
1F\	-um
=95-	=95-
!LO:TX:t=P:problem:kreska pseudotaktowa	!
1C/	fu-
=96-	=96-
4C/	-de-
4D/	.
4E\	.
4F\	.
=97-	=97-
2.G\	.
8F\L	.
8E\J	.
=98-	=98-
1D\	.
=99-	=99-
!LO:TX:t=P:problem:kreska pseudotaktowa	!
1C/	-runt
*	*Xij
=100-	=100-
00r	.
=101-	=101-
.	.
=102-	=102-
.	.
=103-	=103-
.	.
=104-	=104-
00r	.
=105-	=105-
.	.
=106-	=106-
.	.
=107-	=107-
.	.
=108-	=108-
00r	.
=109-	=109-
.	.
=110-	=110-
.	.
=111-	=111-
.	.
=112-	=112-
00r	.
=113-	=113-
.	.
=114-	=114-
.	.
=115-	=115-
.	.
=116-	=116-
0r	.
=117-	=117-
.	.
=118-	=118-
2r	.
!!LO:LB:g=original
2G\	e-
=119-	=119-
4A\	-xul-
4G\	.
4A\	.
4F\	.
=120-	=120-
4G\	.
4A\	.
2B-\	.
=121-	=121-
2F\	-tant
2.G\	si-
=122-	=122-
.	.
4C/	-ne
2G\	fi-
=123-	=123-
1C/	-ne
=124-	=124-
00r	.
=125-	=125-
.	.
=126-	=126-
.	.
=127-	=127-
.	.
=128-	=128-
2r	.
2F\	e-
=129-	=129-
4BB-/	-xul-
4AA/	.
4BB-/	.
4GG/	.
=130-	=130-
4AA/	.
4BB-/	.
2C/	.
=131-	=131-
2FF/	-tant
2.BB-/	si-
=132-	=132-
.	.
4FF/	-ne
2C/	fi-
=133-	=133-
2FF/	-ne
*	*ij
2FF/	e-
=134-	=134-
4BB-/	-xul-
4AA/	.
4BB-/	.
4C/	.
!!LO:LB:g=original
=135-	=135-
2D/	.
2AA/	-tant
=136-	=136-
2BB-/	si-
2FF/	-ne
=137-	=137-
1BB-/	fi-
=138-	=138-
00FF/	-ne
=139-	=139-
.	.
=140-	=140-
.	.
=141-	=141-
.	.
==	==
*-	*-
!!!EED: Leszek Kubiak
!!!EST: 2021-02-16
!!!ENC: Krzysztof Stępień
!!!END: 2021-02-11
